X: 2
T: In the Bleak Midwinter
C: Gustav Holst
M: C|
L: 1/4
K: G
|: "G"B>c dB |     A2 G2 | "Am"A>B AE | "D7"A3 z | "G"B>c dB | "Em"A2 G2 | "Am"AB "D7"A>G | "G"G3 z :|
|: "C"cB  cd | "Em"e2 B2 |  "G"dB  AG | "D7"A3 z | "G"B>c dB | "Em"A2 G2 | "Am"AB "D7"A>G | "G"G3 z :|
%%sep 1 1 10cm
